;FLAVOR:Marlin
;TIME:6710
;Filament used: 3.60354m
;Layer height: 0.2
;MINX:73.103
;MINY:90.877
;MINZ:0.3
;MAXX:139.785
;MAXY:129.128
;MAXZ:48.1
;Generated with Cura_SteamEngine 4.13.1
M140 S60
M105
M190 S60
M104 S210
M105
M109 S210
M82 ;absolute extrusion mode
; Ender 3 Custom Start G-code
G92 E0 ; Reset Extruder
G28 ; Home all axes
G1 Z2.0 F3000 ; Move Z Axis up little to prevent scratching of Heat Bed
G1 X0.1 Y20 Z0.3 F5000.0 ; Move to start position
G1 X0.1 Y200.0 Z0.3 F1500.0 E15 ; Draw the first line
G1 X0.4 Y200.0 Z0.3 F5000.0 ; Move to side a little
G1 X0.4 Y20 Z0.3 F1500.0 E30 ; Draw the second line
G92 E0 ; Reset Extruder
G1 Z2.0 F3000 ; Move Z Axis up little to prevent scratching of Heat Bed
G1 X5 Y20 Z0.3 F5000.0 ; Move over to prevent blob squish
G92 E0
G92 E0
G1 F2400 E-5
;LAYER_COUNT:240
;LAYER:0
M107
G0 F6000 X78.143 Y94.914 Z0.3
;TYPE:SKIRT
G1 F2400 E0
G1 F1200 X79.102 Y94.257 E0.058
G1 X79.302 Y94.135 E0.06968
G1 X80.122 Y93.681 E0.11645
G1 X80.802 Y93.371 E0.15373
G1 X81.071 Y93.259 E0.16827
G1 X81.951 Y92.936 E0.21503
G1 X82.58 Y92.755 E0.24769
G1 X82.776 Y92.705 E0.25778
G1 X83.743 Y92.504 E0.30706
G1 X83.836 Y92.489 E0.31176
G1 X84.743 Y92.382 E0.35732
G1 X85.916 Y92.293 E0.41601
G1 X108.351 Y90.921 E1.53739
G1 X108.752 Y90.9 E1.55742
G1 X109.141 Y90.887 E1.57684
G1 X109.731 Y90.877 E1.60628
G1 X110.12 Y90.877 E1.62568
G1 X111.041 Y90.894 E1.67164
G1 X111.492 Y90.911 E1.69416
G1 X111.643 Y90.92 E1.7017
G1 X111.98 Y90.946 E1.71857
G1 X112.798 Y91.02 E1.75954
G1 X113.287 Y91.075 E1.78409
G1 X113.532 Y91.108 E1.79643
G1 X114.156 Y91.201 E1.8279
G1 X114.457 Y91.25 E1.84312
G1 X114.885 Y91.326 E1.86481
G1 X115.394 Y91.429 E1.89071
G1 X116.157 Y91.602 E1.92975
G1 X116.436 Y91.669 E1.94406
G1 X116.668 Y91.728 E1.956
G1 X116.954 Y91.805 E1.97078
G1 X117.18 Y91.869 E1.9825
G1 X117.46 Y91.953 E1.99708
G1 X118.104 Y92.154 E2.03074
G1 X118.507 Y92.288 E2.05193
G1 X119.031 Y92.474 E2.07967
G1 X119.366 Y92.599 E2.09751
G1 X119.695 Y92.728 E2.11514
G1 X119.94 Y92.827 E2.12832
G1 X120.14 Y92.911 E2.13915
G1 X120.381 Y93.016 E2.15226
G1 X120.934 Y93.264 E2.1825
G1 X121.195 Y93.385 E2.19685
G1 X121.347 Y93.458 E2.20526
G1 X121.655 Y93.612 E2.22244
G1 X122.379 Y93.988 E2.26314
G1 X122.787 Y94.211 E2.28634
G1 X123.09 Y94.385 E2.30377
G1 X123.346 Y94.537 E2.31863
G1 X123.788 Y94.807 E2.34447
G1 X124.051 Y94.972 E2.35996
G1 X124.397 Y95.197 E2.38055
G1 X124.747 Y95.434 E2.40164
G1 X124.969 Y95.591 E2.4152
G1 X125.099 Y95.68 E2.42306
G1 X125.542 Y96 E2.45032
G1 X126.037 Y96.377 E2.48137
G1 X126.424 Y96.686 E2.50607
G1 X126.743 Y96.951 E2.52676
G1 X126.995 Y97.166 E2.54329
G1 X127.474 Y97.588 E2.57514
G1 X127.835 Y97.918 E2.59954
G1 X128.137 Y98.208 E2.62043
G1 X128.44 Y98.51 E2.64177
G1 X128.66 Y98.736 E2.65751
G1 X129.128 Y99.23 E2.69146
G1 X129.449 Y99.584 E2.7153
G1 X129.724 Y99.901 E2.73624
G1 X130.064 Y100.302 E2.76246
G1 X130.27 Y100.552 E2.77863
G1 X130.484 Y100.82 E2.79574
G1 X130.688 Y101.084 E2.81238
G1 X130.867 Y101.324 E2.82732
G1 X131.148 Y101.708 E2.85106
G1 X131.452 Y102.145 E2.87762
G1 X131.916 Y102.848 E2.91964
G1 X132.068 Y103.085 E2.93369
G1 X132.199 Y103.295 E2.94603
G1 X132.382 Y103.599 E2.96374
G1 X132.509 Y103.818 E2.97637
G1 X133.074 Y104.934 E3.03877
G1 X133.105 Y105.005 E3.04264
G1 X133.3 Y105.483 E3.06839
G1 X133.405 Y105.758 E3.08308
G1 X133.702 Y106.648 E3.12989
G1 X133.967 Y107.799 E3.18882
G1 X134.004 Y108.012 E3.1996
G1 X134.125 Y108.942 E3.24639
G1 X134.166 Y109.895 E3.29398
G1 X134.166 Y110.108 E3.30461
G1 X134.126 Y111.045 E3.3514
G1 X134.07 Y111.562 E3.37734
G1 X134.052 Y111.697 E3.38414
G1 X133.888 Y112.62 E3.43091
G1 X133.69 Y113.386 E3.47038
G1 X133.611 Y113.651 E3.48417
G1 X133.305 Y114.537 E3.53094
G1 X132.949 Y115.345 E3.57499
G1 X132.902 Y115.441 E3.58032
G1 X132.717 Y115.8 E3.60047
G1 X132.62 Y115.981 E3.61071
G1 X132.296 Y116.545 E3.64317
G1 X131.985 Y117.051 E3.6728
G1 X131.742 Y117.43 E3.69526
G1 X131.514 Y117.769 E3.71564
G1 X131.173 Y118.257 E3.74534
G1 X131.032 Y118.453 E3.75739
G1 X130.819 Y118.742 E3.7753
G1 X130.573 Y119.063 E3.79548
G1 X130.196 Y119.537 E3.82569
G1 X129.979 Y119.802 E3.84278
G1 X129.64 Y120.202 E3.86894
G1 X129.328 Y120.556 E3.89248
G1 X129.069 Y120.836 E3.91151
G1 X128.51 Y121.42 E3.95184
G1 X128.148 Y121.782 E3.97738
G1 X127.712 Y122.197 E4.00741
G1 X127.35 Y122.527 E4.03185
G1 X127.003 Y122.829 E4.0548
G1 X126.403 Y123.331 E4.09383
G1 X125.995 Y123.655 E4.11982
G1 X125.503 Y124.027 E4.1506
G1 X125.281 Y124.191 E4.16437
G1 X124.966 Y124.417 E4.18371
G1 X124.548 Y124.705 E4.20903
G1 X124.316 Y124.859 E4.22292
G1 X123.858 Y125.154 E4.2501
G1 X123.6 Y125.315 E4.26528
G1 X123.245 Y125.53 E4.28598
G1 X122.94 Y125.708 E4.3036
G1 X122.618 Y125.887 E4.32198
G1 X122.068 Y126.182 E4.35312
G1 X121.74 Y126.351 E4.37153
G1 X121.454 Y126.491 E4.38741
G1 X120.845 Y126.777 E4.42098
G1 X120.571 Y126.901 E4.43598
G1 X120.168 Y127.077 E4.45792
G1 X119.656 Y127.285 E4.48549
G1 X119.108 Y127.496 E4.51479
G1 X118.829 Y127.6 E4.52965
G1 X118.571 Y127.692 E4.54331
G1 X118.271 Y127.794 E4.55912
G1 X117.855 Y127.929 E4.58094
G1 X117.469 Y128.046 E4.60106
G1 X116.924 Y128.201 E4.62933
G1 X116.565 Y128.297 E4.64787
G1 X115.989 Y128.44 E4.67748
G1 X115.669 Y128.515 E4.69388
G1 X115.381 Y128.576 E4.70856
G1 X114.911 Y128.669 E4.73247
G1 X114.627 Y128.721 E4.74687
G1 X114.211 Y128.792 E4.76793
G1 X113.894 Y128.842 E4.78394
G1 X113.262 Y128.931 E4.81578
G1 X112.768 Y128.989 E4.84059
G1 X112.452 Y129.019 E4.85643
G1 X112.155 Y129.043 E4.8713
G1 X111.692 Y129.077 E4.89446
G1 X111.193 Y129.106 E4.91939
G1 X110.838 Y129.118 E4.93712
G1 X110.313 Y129.127 E4.96331
G1 X110.108 Y129.128 E4.97354
G1 X109.541 Y129.125 E5.00183
G1 X109.147 Y129.116 E5.02149
G1 X108.576 Y129.091 E5.05
G1 X108.173 Y129.068 E5.07014
G1 X87.412 Y127.801 E6.10784
G1 X85.551 Y127.684 E6.20087
G1 X84.94 Y127.637 E6.23144
G1 X84.578 Y127.603 E6.24958
G1 X84.315 Y127.574 E6.26278
G1 X83.388 Y127.431 E6.30958
G1 X82.335 Y127.169 E6.36371
G1 X81.945 Y127.051 E6.38404
G1 X81.06 Y126.741 E6.43083
G1 X80.035 Y126.27 E6.4871
G1 X79.815 Y126.155 E6.49949
G1 X79.003 Y125.686 E6.54627
G1 X78.455 Y125.313 E6.57934
G1 X78.266 Y125.176 E6.59099
G1 X77.531 Y124.594 E6.63776
G1 X76.886 Y123.99 E6.68185
G1 X76.685 Y123.786 E6.69614
G1 X76.056 Y123.091 E6.7429
G1 X75.511 Y122.377 E6.78771
G1 X75.352 Y122.15 E6.80154
G1 X74.847 Y121.359 E6.84836
G1 X74.607 Y120.923 E6.87319
G1 X74.521 Y120.758 E6.88247
G1 X74.124 Y119.909 E6.92923
G1 X73.773 Y118.942 E6.98056
G1 X73.675 Y118.627 E6.99701
G1 X73.403 Y117.574 E7.05127
G1 X73.351 Y117.321 E7.06416
G1 X73.202 Y116.395 E7.11095
G1 X73.128 Y115.311 E7.16516
G1 X73.105 Y114.079 E7.22663
G1 X73.103 Y113.873 E7.23691
G1 X73.105 Y105.602 E7.64955
G1 X73.115 Y104.915 E7.68383
G1 X73.146 Y104.231 E7.71799
G1 X73.161 Y104.036 E7.72775
G1 X73.344 Y102.717 E7.79418
G1 X73.411 Y102.383 E7.81118
G1 X73.634 Y101.472 E7.85797
G1 X73.831 Y100.862 E7.88995
G1 X73.89 Y100.696 E7.89874
G1 X74.242 Y99.827 E7.94552
G1 X74.516 Y99.266 E7.97667
G1 X74.673 Y98.967 E7.99352
G1 X75.144 Y98.156 E8.0403
G1 X75.637 Y97.448 E8.08335
G1 X75.764 Y97.28 E8.09385
G1 X76.361 Y96.556 E8.14067
G1 X77.133 Y95.78 E8.19528
G1 X77.424 Y95.515 E8.21492
G1 X78.143 Y94.914 E8.26167
G0 F6000 X78.4 Y95.221
G1 F1200 X79.31 Y94.599 E8.31666
G1 X79.51 Y94.477 E8.32835
G1 X80.316 Y94.032 E8.37428
G1 X80.956 Y93.74 E8.40938
G1 X81.225 Y93.628 E8.42392
G1 X82.089 Y93.312 E8.46981
G1 X82.679 Y93.143 E8.50043
G1 X82.875 Y93.093 E8.51052
G1 X83.807 Y92.899 E8.55802
G1 X83.9 Y92.884 E8.56272
G1 X84.773 Y92.78 E8.60658
G1 X85.772 Y92.703 E8.65657
G1 X108.372 Y91.321 E9.78619
G1 X108.773 Y91.3 E9.80623
G1 X109.147 Y91.287 E9.8249
G1 X109.737 Y91.277 E9.85434
G1 X110.113 Y91.277 E9.87309
G1 X111.034 Y91.294 E9.91905
G1 X111.469 Y91.311 E9.94077
G1 X111.62 Y91.32 E9.94832
G1 X111.944 Y91.344 E9.96453
G1 X112.762 Y91.418 E10.0055
G1 X113.134 Y91.458 E10.02417
G1 X113.473 Y91.504 E10.04124
G1 X114.097 Y91.597 E10.07271
G1 X114.387 Y91.644 E10.08737
G1 X114.815 Y91.72 E10.10906
G1 X115.306 Y91.819 E10.13404
G1 X116.069 Y91.992 E10.17308
G1 X116.338 Y92.057 E10.18688
G1 X116.57 Y92.116 E10.19883
G1 X116.845 Y92.19 E10.21303
G1 X117.071 Y92.254 E10.22475
G1 X117.341 Y92.334 E10.2388
G1 X117.985 Y92.535 E10.27246
G1 X118.373 Y92.665 E10.29288
G1 X118.897 Y92.851 E10.32062
G1 X119.22 Y92.971 E10.33781
G1 X119.549 Y93.1 E10.35544
G1 X119.985 Y93.28 E10.37897
G1 X120.217 Y93.381 E10.39159
G1 X120.77 Y93.629 E10.42183
G1 X121.174 Y93.819 E10.4441
G1 X121.47 Y93.967 E10.46061
G1 X122.194 Y94.343 E10.50132
G1 X122.588 Y94.558 E10.52371
G1 X122.891 Y94.732 E10.54114
G1 X123.138 Y94.878 E10.55545
G1 X123.58 Y95.148 E10.5813
G1 X123.833 Y95.308 E10.59623
G1 X124.179 Y95.533 E10.61682
G1 X124.516 Y95.761 E10.63712
G1 X124.873 Y96.01 E10.65884
G1 X125.3 Y96.318 E10.6851
G1 X125.795 Y96.695 E10.71614
G1 X126.168 Y96.993 E10.73996
G1 X126.487 Y97.259 E10.76069
G1 X126.73 Y97.466 E10.77661
G1 X127.209 Y97.888 E10.80846
G1 X127.564 Y98.212 E10.83244
G1 X127.855 Y98.491 E10.85255
G1 X128.158 Y98.793 E10.87389
G1 X128.37 Y99.011 E10.88906
G1 X128.838 Y99.505 E10.92301
G1 X129.147 Y99.846 E10.94597
G1 X129.419 Y100.16 E10.9667
G1 X129.759 Y100.561 E10.99293
G1 X129.957 Y100.802 E11.00849
G1 X130.171 Y101.07 E11.0256
G1 X130.368 Y101.324 E11.04164
G1 X130.544 Y101.56 E11.05632
G1 X130.825 Y101.944 E11.08006
G1 X131.118 Y102.365 E11.10565
G1 X131.582 Y103.068 E11.14768
G1 X131.729 Y103.297 E11.16125
G1 X131.86 Y103.507 E11.1736
G1 X132.036 Y103.799 E11.19061
G1 X132.163 Y104.018 E11.20324
G1 X132.707 Y105.094 E11.26339
G1 X132.738 Y105.165 E11.26726
G1 X132.927 Y105.626 E11.29212
G1 X133.032 Y105.901 E11.3068
G1 X133.322 Y106.775 E11.35274
G1 X133.573 Y107.868 E11.40869
G1 X133.61 Y108.081 E11.41948
G1 X133.728 Y108.994 E11.46541
G1 X133.766 Y109.895 E11.5104
G1 X133.766 Y110.108 E11.52102
G1 X133.726 Y111.028 E11.56697
G1 X133.673 Y111.509 E11.59111
G1 X133.655 Y111.644 E11.5979
G1 X133.494 Y112.55 E11.64381
G1 X133.306 Y113.271 E11.68099
G1 X133.227 Y113.536 E11.69478
G1 X132.926 Y114.406 E11.74071
G1 X132.589 Y115.169 E11.78232
G1 X132.542 Y115.265 E11.78766
G1 X132.365 Y115.611 E11.80705
G1 X132.268 Y115.792 E11.81729
G1 X131.956 Y116.335 E11.84854
G1 X131.645 Y116.841 E11.87817
G1 X131.41 Y117.207 E11.89987
G1 X131.182 Y117.546 E11.92025
G1 X130.846 Y118.027 E11.94952
G1 X130.71 Y118.216 E11.96114
G1 X130.497 Y118.505 E11.97905
G1 X130.26 Y118.814 E11.99848
G1 X129.883 Y119.288 E12.02869
G1 X129.674 Y119.543 E12.04514
G1 X129.335 Y119.943 E12.0713
G1 X129.155 Y120.15 E12.08499
G1 X129.03 Y120.29 E12.09435
G1 X128.78 Y120.56 E12.11271
G1 X128.221 Y121.144 E12.15304
G1 X127.872 Y121.492 E12.17763
G1 X127.436 Y121.907 E12.20766
G1 X127.087 Y122.225 E12.23122
G1 X126.74 Y122.527 E12.25417
G1 X126.567 Y122.674 E12.26549
G1 X126.147 Y123.024 E12.29277
G1 X125.754 Y123.336 E12.3178
G1 X125.262 Y123.708 E12.34857
G1 X125.048 Y123.866 E12.36185
G1 X124.733 Y124.092 E12.38119
G1 X124.517 Y124.243 E12.39434
G1 X124.323 Y124.375 E12.40604
G1 X124.1 Y124.522 E12.41937
G1 X123.642 Y124.817 E12.44655
G1 X123.393 Y124.973 E12.46121
G1 X123.038 Y125.188 E12.48191
G1 X122.744 Y125.36 E12.49891
G1 X122.429 Y125.534 E12.51686
G1 X121.879 Y125.829 E12.548
G1 X121.56 Y125.994 E12.56591
G1 X121.284 Y126.129 E12.58124
G1 X120.675 Y126.415 E12.61481
G1 X120.411 Y126.534 E12.62926
G1 X120.008 Y126.71 E12.6512
G1 X119.515 Y126.911 E12.67776
G1 X119.355 Y126.971 E12.68628
G1 X118.964 Y127.123 E12.70721
G1 X118.694 Y127.223 E12.72158
G1 X118.436 Y127.315 E12.73524
G1 X118.148 Y127.413 E12.75042
G1 X117.732 Y127.548 E12.77224
G1 X117.36 Y127.662 E12.79165
G1 X116.815 Y127.817 E12.81992
G1 X116.469 Y127.909 E12.83778
G1 X115.893 Y128.052 E12.86739
G1 X115.581 Y128.125 E12.88338
G1 X115.304 Y128.183 E12.8975
G1 X114.834 Y128.276 E12.9214
G1 X114.559 Y128.327 E12.93535
G1 X114.143 Y128.398 E12.95641
G1 X113.838 Y128.445 E12.9718
G1 X113.206 Y128.534 E13.00365
G1 X112.73 Y128.591 E13.02756
G1 X112.414 Y128.621 E13.0434
G1 X111.66 Y128.679 E13.08113
G1 X111.179 Y128.706 E13.10516
G1 X110.824 Y128.718 E13.12288
G1 X110.307 Y128.727 E13.14868
G1 X110.11 Y128.728 E13.15851
G1 X109.543 Y128.725 E13.1868
G1 X109.163 Y128.716 E13.20576
G1 X108.598 Y128.692 E13.23397
G1 X108.197 Y128.669 E13.25401
G1 X87.437 Y127.402 E14.29166
G1 X85.582 Y127.285 E14.38439
G1 X84.971 Y127.238 E14.41496
G1 X84.622 Y127.205 E14.43245
G1 X84.359 Y127.176 E14.44565
G1 X83.449 Y127.036 E14.49159
G1 X82.451 Y126.786 E14.54292
G1 X82.061 Y126.668 E14.56324
G1 X81.192 Y126.363 E14.60919
G1 X80.221 Y125.916 E14.66252
G1 X80.001 Y125.801 E14.67491
G1 X79.204 Y125.339 E14.72087
G1 X78.69 Y124.989 E14.75189
G1 X78.501 Y124.852 E14.76354
G1 X77.78 Y124.28 E14.80945
G1 X77.171 Y123.71 E14.85107
G1 X76.97 Y123.506 E14.86536
G1 X76.353 Y122.822 E14.91131
G1 X75.839 Y122.147 E14.95364
G1 X75.68 Y121.92 E14.96747
G1 X75.185 Y121.144 E15.01339
G1 X74.962 Y120.738 E15.0365
G1 X74.876 Y120.573 E15.04578
G1 X74.487 Y119.739 E15.09169
G1 X74.155 Y118.823 E15.1403
G1 X74.057 Y118.508 E15.15676
G1 X73.795 Y117.493 E15.20906
G1 X73.743 Y117.24 E15.22194
G1 X73.597 Y116.331 E15.26788
G1 X73.528 Y115.304 E15.31923
G1 X73.505 Y114.072 E15.3807
G1 X73.503 Y113.873 E15.39063
G1 X73.505 Y105.608 E15.80298
G1 X73.515 Y104.921 E15.83725
G1 X73.545 Y104.262 E15.87017
G1 X73.56 Y104.067 E15.87992
G1 X73.736 Y102.795 E15.94399
G1 X73.803 Y102.461 E15.96098
G1 X74.023 Y101.567 E16.00692
G1 X74.208 Y100.996 E16.03686
G1 X74.267 Y100.83 E16.04565
G1 X74.613 Y99.977 E16.09157
G1 X74.87 Y99.452 E16.12074
G1 X75.027 Y99.153 E16.13759
G1 X75.49 Y98.357 E16.18353
G1 X75.956 Y97.689 E16.22416
G1 X76.083 Y97.521 E16.23467
G1 X76.67 Y96.811 E16.28063
G1 X77.402 Y96.076 E16.33238
G1 X77.693 Y95.811 E16.35202
G1 X78.4 Y95.221 E16.39796
G0 F6000 X78.656 Y95.529
G1 F1200 X79.518 Y94.94 E16.45004
G1 X79.718 Y94.818 E16.46173
G1 X80.509 Y94.383 E16.50677
G1 X81.109 Y94.11 E16.53966
G1 X81.378 Y93.998 E16.55419
G1 X82.227 Y93.688 E16.59929
G1 X82.778 Y93.531 E16.62787
G1 X82.974 Y93.481 E16.63796
G1 X83.871 Y93.294 E16.68367
G1 X83.964 Y93.279 E16.68837
G1 X84.804 Y93.179 E16.73058
G1 X85.964 Y93.091 E16.78862
G1 X108.393 Y91.72 E17.90969
G1 X108.794 Y91.699 E17.92973
G1 X109.154 Y91.686 E17.9477
G1 X109.744 Y91.676 E17.97714
G1 X110.105 Y91.677 E17.99515
G1 X111.026 Y91.694 E18.0411
G1 X111.445 Y91.71 E18.06202
G1 X111.596 Y91.719 E18.06957
G1 X111.908 Y91.742 E18.08518
G1 X112.726 Y91.816 E18.12616
G1 X113.187 Y91.868 E18.1493
G1 X113.414 Y91.899 E18.16073
G1 X114.038 Y91.992 E18.19221
G1 X114.317 Y92.038 E18.20631
G1 X114.745 Y92.114 E18.228
G1 X115.217 Y92.209 E18.25202
G1 X115.98 Y92.382 E18.29105
G1 X116.471 Y92.504 E18.31629
G1 X116.736 Y92.575 E18.32998
G1 X116.962 Y92.639 E18.3417
G1 X117.222 Y92.716 E18.35523
G1 X117.866 Y92.917 E18.38889
G1 X118.239 Y93.042 E18.40851
G1 X118.763 Y93.228 E18.43625
G1 X119.074 Y93.344 E18.45281
G1 X119.403 Y93.473 E18.47044
G1 X119.83 Y93.649 E18.49349
G1 X120.054 Y93.746 E18.50566
G1 X120.607 Y93.994 E18.5359
G1 X120.849 Y94.106 E18.5492
G1 X121.001 Y94.179 E18.55762
G1 X121.286 Y94.322 E18.57353
G1 X122.01 Y94.698 E18.61423
G1 X122.388 Y94.905 E18.63573
G1 X122.691 Y95.079 E18.65316
G1 X122.929 Y95.22 E18.66696
G1 X123.371 Y95.49 E18.6928
G1 X123.615 Y95.643 E18.70717
G1 X123.961 Y95.868 E18.72776
G1 X124.285 Y96.088 E18.7473
G1 X124.647 Y96.34 E18.7693
G1 X125.057 Y96.636 E18.79453
G1 X125.552 Y97.013 E18.82558
G1 X125.911 Y97.3 E18.84851
G1 X126.232 Y97.567 E18.86934
G1 X126.466 Y97.767 E18.88469
G1 X126.945 Y98.189 E18.91654
G1 X127.292 Y98.506 E18.93999
G1 X127.573 Y98.775 E18.9594
G1 X127.876 Y99.077 E18.98074
G1 X128.08 Y99.286 E18.99531
G1 X128.548 Y99.78 E19.02926
G1 X128.845 Y100.108 E19.05134
G1 X129.114 Y100.419 E19.07185
G1 X129.454 Y100.82 E19.09808
G1 X129.645 Y101.051 E19.11303
G1 X129.859 Y101.319 E19.13015
G1 X130.048 Y101.564 E19.14558
G1 X130.221 Y101.796 E19.16002
G1 X130.502 Y102.18 E19.18376
G1 X130.784 Y102.585 E19.20838
G1 X131.248 Y103.288 E19.2504
G1 X131.389 Y103.508 E19.26344
